build/category/ElderlyOutline.svg

<svg xmlns="http://www.w3.org/2000/svg" fill="none" viewBox="0 0 24 24" focusable="false"><path d="M0 0H24V24H0z"/><path fill="#74767B" fill-rule="evenodd" d="M10.5244 2C9.69599 2 9.02441 2.67157 9.02441 3.5L9.02441 4.5C9.02441 5.32843 9.69599 6 10.5244 6C11.3528 6 12.0244 5.32843 12.0244 4.5L12.0244 3.5C12.0244 2.67157 11.3528 2 10.5244 2ZM7.7687 17.5L6.65433 17.5C6.21357 17.5 5.88249 17.0975 5.96746 16.6651L7.41761 9.2841C7.67834 7.95703 8.8417 7 10.1941 7C10.9676 7 11.6657 7.29455 12.1764 7.79751C12.8533 8.46405 13.5547 9.14844 14.2617 9.7818C14.6981 10.1947 15.2761 10.4248 15.8769 10.4248L17.3715 10.4248C17.7305 10.4248 18.0215 10.7159 18.0215 11.0748C18.0215 11.366 17.8301 11.6124 17.5663 11.6951C18.1568 12.0784 18.5475 12.7436 18.5475 13.5L18.5475 21.3514C18.5475 21.7104 18.2564 22.0014 17.8975 22.0014C17.5385 22.0014 17.2475 21.7104 17.2475 21.3514L17.2475 13.5C17.2475 13.0306 16.8669 12.65 16.3975 12.65C15.928 12.65 15.5475 13.0306 15.5475 13.5L15.5475 14.5976C15.5475 14.9566 15.2564 15.2476 14.8975 15.2476C14.5385 15.2476 14.2475 14.9566 14.2475 14.5976L14.2475 13.5C14.2475 12.7287 14.6536 12.0523 15.2636 11.673C14.5566 11.5524 13.8958 11.2253 13.3682 10.7261L13.0237 10.4001L13.0237 16.8C13.0237 17.1866 12.7103 17.5 12.3237 17.5L11.6744 17.5L11.6744 21.3514C11.6744 21.7104 11.3834 22.0014 11.0244 22.0014C10.6654 22.0014 10.3744 21.7104 10.3744 21.3514L10.3744 17.5L9.0687 17.5L9.0687 21.3514C9.0687 21.7104 8.77769 22.0014 8.4187 22.0014C8.05972 22.0014 7.7687 21.7104 7.7687 21.3514L7.7687 17.5ZM10.1941 8.3C9.91589 8.3 9.65246 8.37493 9.42509 8.50731C8.74622 9.04011 8.55961 9.75371 8.6902 10.5394C8.82705 11.3627 9.31619 12.2269 9.93579 12.8624C10.1864 13.1194 10.1812 13.531 9.92414 13.7816C9.6671 14.0322 9.25557 14.027 9.00497 13.7699C8.66876 13.4251 8.35615 13.0202 8.09527 12.5782L7.38369 16.2L11.7237 16.2L11.7237 9.8296C11.7237 8.98483 11.0389 8.3 10.1941 8.3Z"/></svg>

<svg xmlns="http://www.w3.org/2000/svg" fill="none" viewBox="0 0 24 24" focusable="false"><path fill="#74767B" fill-rule="evenodd" d="M10.52 2c-.83 0-1.5.67-1.5 1.5v1c0 .82.67 1.5 1.5 1.5s1.5-.68 1.5-1.5v-1c0-.83-.67-1.5-1.5-1.5M7.76 17.5H6.65a.71.71 0 0 1-.69-.84l1.45-7.38A2.83 2.83 0 0 1 10.19 7c.77 0 1.47.29 1.98.79.68.67 1.38 1.35 2.09 1.99.43.41 1.01.64 1.61.64h1.5a.649.649 0 0 1 .19 1.27c.59.38.98 1.05.98 1.81v7.85c0 .36-.29.65-.65.65s-.65-.29-.65-.65V13.5a.85.85 0 1 0-1.7 0v1.09c0 .36-.29.65-.65.65s-.65-.29-.65-.65V13.5c0-.78.41-1.45 1.02-1.83-.71-.12-1.37-.45-1.9-.95l-.34-.32v6.39c0 .39-.31.71-.7.71h-.65v3.85c0 .36-.29.65-.65.65s-.65-.29-.65-.65V17.5H9.06v3.85c0 .36-.29.65-.65.65s-.65-.29-.65-.65zm2.43-9.21c-.28 0-.54.08-.77.21-.68.54-.87 1.25-.73 2.03.13.83.62 1.69 1.24 2.33.25.25.25.67-.01.92s-.67.24-.92-.02a5.8 5.8 0 0 1-.91-1.19l-.71 3.63h4.34V9.82c0-.84-.69-1.53-1.53-1.53"/></svg>
